resources/icons/cisco/mdu.svg

<?xml version="1.0" encoding="UTF-8"?>
<svg xmlns="http://www.w3.org/2000/svg" xmlns:xlink="http://www.w3.org/1999/xlink" width="160pt" height="200pt" viewBox="0 0 160 200" version="1.1">
<g id="surface1">
<path style=" stroke:none;fill-rule:nonzero;fill:rgb(0.784314%,43.921569%,62.352941%);fill-opacity:1;" d="M 156.464844 152.78125 L 156.464844 13.152344 L 122.890625 46.800781 L 122.890625 192.265625 L 156.464844 152.777344 "/>
<path style="fill:none;stroke-width:0.5;stroke-linecap:butt;stroke-linejoin:miter;stroke:rgb(100%,100%,100%);stroke-opacity:1;stroke-miterlimit:4;" d="M 39.116211 38.195312 L 39.116211 3.288086 L 30.722656 11.700195 L 30.722656 48.066406 L 39.116211 38.194336 Z M 39.116211 38.195312 " transform="matrix(4,0,0,4,0,0)"/>
<path style="fill-rule:nonzero;fill:rgb(0.784314%,43.921569%,62.352941%);fill-opacity:1;stroke-width:0.5;stroke-linecap:butt;stroke-linejoin:miter;stroke:rgb(100%,100%,100%);stroke-opacity:1;stroke-miterlimit:4;" d="M 0.400391 48.069336 L 30.722656 48.069336 L 30.722656 11.700195 L 0.400391 11.700195 L 0.400391 48.070312 Z M 0.400391 48.069336 " transform="matrix(4,0,0,4,0,0)"/>
<path style=" stroke:none;fill-rule:nonzero;fill:rgb(0.784314%,43.921569%,62.352941%);fill-opacity:1;" d="M 122.890625 46.804688 L 156.464844 13.152344 L 139.804688 1.273438 L 23.832031 1.273438 L 1.601562 46.808594 L 122.890625 46.808594 "/>
<path style="fill:none;stroke-width:0.5;stroke-linecap:butt;stroke-linejoin:miter;stroke:rgb(100%,100%,100%);stroke-opacity:1;stroke-miterlimit:4;" d="M 30.722656 11.701172 L 39.116211 3.288086 L 34.951172 0.318359 L 5.958008 0.318359 L 0.400391 11.702148 L 30.722656 11.702148 Z M 30.722656 11.701172 " transform="matrix(4,0,0,4,0,0)"/>
<path style=" stroke:none;fill-rule:nonzero;fill:rgb(0.784314%,43.921569%,62.352941%);fill-opacity:1;" d="M 27.167969 101.199219 L 27.167969 113.894531 L 39.886719 113.894531 "/>
<path style="fill:none;stroke-width:0.5;stroke-linecap:butt;stroke-linejoin:miter;stroke:rgb(100%,100%,100%);stroke-opacity:1;stroke-miterlimit:4;" d="M 6.791992 25.299805 L 6.791992 28.473633 L 9.97168 28.473633 M 6.459961 28.473633 L 9.970703 28.473633 " transform="matrix(4,0,0,4,0,0)"/>
<path style=" stroke:none;fill-rule:nonzero;fill:rgb(0.784314%,43.921569%,62.352941%);fill-opacity:1;" d="M 9.457031 101.199219 L 9.457031 113.894531 L 22.152344 113.894531 "/>
<path style="fill:none;stroke-width:0.5;stroke-linecap:butt;stroke-linejoin:miter;stroke:rgb(100%,100%,100%);stroke-opacity:1;stroke-miterlimit:4;" d="M 2.364258 25.299805 L 2.364258 28.473633 L 5.538086 28.473633 M 2.03125 28.473633 L 5.538086 28.473633 " transform="matrix(4,0,0,4,0,0)"/>
<path style=" stroke:none;fill-rule:nonzero;fill:rgb(0.784314%,43.921569%,62.352941%);fill-opacity:1;" d="M 9.457031 76.84375 L 9.457031 89.539062 L 22.152344 89.539062 "/>
<path style="fill:none;stroke-width:0.5;stroke-linecap:butt;stroke-linejoin:miter;stroke:rgb(100%,100%,100%);stroke-opacity:1;stroke-miterlimit:4;" d="M 2.364258 19.209961 L 2.364258 22.384766 L 5.538086 22.384766 M 2.03125 22.384766 L 5.538086 22.384766 " transform="matrix(4,0,0,4,0,0)"/>
<path style=" stroke:none;fill-rule:nonzero;fill:rgb(0.784314%,43.921569%,62.352941%);fill-opacity:1;" d="M 27.167969 52.472656 L 27.167969 65.164062 L 39.886719 65.164062 "/>
<path style="fill:none;stroke-width:0.5;stroke-linecap:butt;stroke-linejoin:miter;stroke:rgb(100%,100%,100%);stroke-opacity:1;stroke-miterlimit:4;" d="M 6.791992 13.118164 L 6.791992 16.291016 L 9.97168 16.291016 M 6.459961 16.291016 L 9.970703 16.291016 " transform="matrix(4,0,0,4,0,0)"/>
<path style=" stroke:none;fill-rule:nonzero;fill:rgb(0.784314%,43.921569%,62.352941%);fill-opacity:1;" d="M 9.457031 52.472656 L 9.457031 65.164062 L 22.152344 65.164062 "/>
<path style="fill:none;stroke-width:0.5;stroke-linecap:butt;stroke-linejoin:miter;stroke:rgb(100%,100%,100%);stroke-opacity:1;stroke-miterlimit:4;" d="M 2.364258 13.118164 L 2.364258 16.291016 L 5.538086 16.291016 M 2.03125 16.291016 L 5.538086 16.291016 " transform="matrix(4,0,0,4,0,0)"/>
<path style=" stroke:none;fill-rule:nonzero;fill:rgb(0.784314%,43.921569%,62.352941%);fill-opacity:1;" d="M 47.796875 101.199219 L 47.796875 113.894531 L 60.507812 113.894531 "/>
<path style="fill:none;stroke-width:0.5;stroke-linecap:butt;stroke-linejoin:miter;stroke:rgb(100%,100%,100%);stroke-opacity:1;stroke-miterlimit:4;" d="M 11.949219 25.299805 L 11.949219 28.473633 L 15.126953 28.473633 M 11.616211 28.473633 L 15.126953 28.473633 " transform="matrix(4,0,0,4,0,0)"/>
<path style=" stroke:none;fill-rule:nonzero;fill:rgb(0.784314%,43.921569%,62.352941%);fill-opacity:1;" d="M 47.796875 76.84375 L 47.796875 89.539062 L 60.507812 89.539062 "/>
<path style="fill:none;stroke-width:0.5;stroke-linecap:butt;stroke-linejoin:miter;stroke:rgb(100%,100%,100%);stroke-opacity:1;stroke-miterlimit:4;" d="M 11.949219 19.209961 L 11.949219 22.384766 L 15.126953 22.384766 M 11.616211 22.384766 L 15.126953 22.384766 " transform="matrix(4,0,0,4,0,0)"/>
<path style=" stroke:none;fill-rule:nonzero;fill:rgb(0.784314%,43.921569%,62.352941%);fill-opacity:1;" d="M 47.796875 52.472656 L 47.796875 65.164062 L 60.507812 65.164062 "/>
<path style="fill:none;stroke-width:0.5;stroke-linecap:butt;stroke-linejoin:miter;stroke:rgb(100%,100%,100%);stroke-opacity:1;stroke-miterlimit:4;" d="M 11.949219 13.118164 L 11.949219 16.291016 L 15.126953 16.291016 M 11.616211 16.291016 L 15.126953 16.291016 " transform="matrix(4,0,0,4,0,0)"/>
<path style=" stroke:none;fill-rule:nonzero;fill:rgb(0.784314%,43.921569%,62.352941%);fill-opacity:1;" d="M 84.671875 101.199219 L 84.671875 113.894531 L 97.382812 113.894531 "/>
<path style="fill:none;stroke-width:0.5;stroke-linecap:butt;stroke-linejoin:miter;stroke:rgb(100%,100%,100%);stroke-opacity:1;stroke-miterlimit:4;" d="M 21.167969 25.299805 L 21.167969 28.473633 L 24.345703 28.473633 M 20.834961 28.473633 L 24.345703 28.473633 " transform="matrix(4,0,0,4,0,0)"/>
<path style=" stroke:none;fill-rule:nonzero;fill:rgb(0.784314%,43.921569%,62.352941%);fill-opacity:1;" d="M 66.957031 101.199219 L 66.957031 113.894531 L 79.652344 113.894531 "/>
<path style="fill:none;stroke-width:0.5;stroke-linecap:butt;stroke-linejoin:miter;stroke:rgb(100%,100%,100%);stroke-opacity:1;stroke-miterlimit:4;" d="M 16.739258 25.299805 L 16.739258 28.473633 L 19.913086 28.473633 M 16.40625 28.473633 L 19.913086 28.473633 " transform="matrix(4,0,0,4,0,0)"/>
<path style=" stroke:none;fill-rule:nonzero;fill:rgb(0.784314%,43.921569%,62.352941%);fill-opacity:1;" d="M 66.957031 76.84375 L 66.957031 89.539062 L 79.652344 89.539062 "/>
<path style="fill:none;stroke-width:0.5;stroke-linecap:butt;stroke-linejoin:miter;stroke:rgb(100%,100%,100%);stroke-opacity:1;stroke-miterlimit:4;" d="M 16.739258 19.209961 L 16.739258 22.384766 L 19.913086 22.384766 M 16.40625 22.384766 L 19.913086 22.384766 " transform="matrix(4,0,0,4,0,0)"/>
<path style=" stroke:none;fill-rule:nonzero;fill:rgb(0.784314%,43.921569%,62.352941%);fill-opacity:1;" d="M 84.671875 52.472656 L 84.671875 65.164062 L 97.382812 65.164062 "/>
<path style="fill:none;stroke-width:0.5;stroke-linecap:butt;stroke-linejoin:miter;stroke:rgb(100%,100%,100%);stroke-opacity:1;stroke-miterlimit:4;" d="M 21.167969 13.118164 L 21.167969 16.291016 L 24.345703 16.291016 M 20.834961 16.291016 L 24.345703 16.291016 " transform="matrix(4,0,0,4,0,0)"/>
<path style=" stroke:none;fill-rule:nonzero;fill:rgb(0.784314%,43.921569%,62.352941%);fill-opacity:1;" d="M 66.957031 52.472656 L 66.957031 65.164062 L 79.652344 65.164062 "/>
<path style="fill:none;stroke-width:0.5;stroke-linecap:butt;stroke-linejoin:miter;stroke:rgb(100%,100%,100%);stroke-opacity:1;stroke-miterlimit:4;" d="M 16.739258 13.118164 L 16.739258 16.291016 L 19.913086 16.291016 M 16.40625 16.291016 L 19.913086 16.291016 " transform="matrix(4,0,0,4,0,0)"/>
<path style=" stroke:none;fill-rule:nonzero;fill:rgb(0.784314%,43.921569%,62.352941%);fill-opacity:1;" d="M 105.296875 101.199219 L 105.296875 113.894531 L 118.007812 113.894531 "/>
<path style="fill:none;stroke-width:0.5;stroke-linecap:butt;stroke-linejoin:miter;stroke:rgb(100%,100%,100%);stroke-opacity:1;stroke-miterlimit:4;" d="M 26.324219 25.299805 L 26.324219 28.473633 L 29.501953 28.473633 M 25.991211 28.473633 L 29.50293 28.473633 " transform="matrix(4,0,0,4,0,0)"/>
<path style=" stroke:none;fill-rule:nonzero;fill:rgb(0.784314%,43.921569%,62.352941%);fill-opacity:1;" d="M 105.296875 76.84375 L 105.296875 89.539062 L 118.007812 89.539062 "/>
<path style="fill:none;stroke-width:0.5;stroke-linecap:butt;stroke-linejoin:miter;stroke:rgb(100%,100%,100%);stroke-opacity:1;stroke-miterlimit:4;" d="M 26.324219 19.209961 L 26.324219 22.384766 L 29.501953 22.384766 M 25.991211 22.384766 L 29.50293 22.384766 " transform="matrix(4,0,0,4,0,0)"/>
<path style=" stroke:none;fill-rule:nonzero;fill:rgb(0.784314%,43.921569%,62.352941%);fill-opacity:1;" d="M 105.296875 52.472656 L 105.296875 65.164062 L 118.007812 65.164062 "/>
<path style="fill:none;stroke-width:0.5;stroke-linecap:butt;stroke-linejoin:miter;stroke:rgb(100%,100%,100%);stroke-opacity:1;stroke-miterlimit:4;" d="M 26.324219 13.118164 L 26.324219 16.291016 L 29.501953 16.291016 M 25.991211 16.291016 L 29.50293 16.291016 " transform="matrix(4,0,0,4,0,0)"/>
<path style="fill-rule:nonzero;fill:rgb(0.784314%,43.921569%,62.352941%);fill-opacity:1;stroke-width:0.5;stroke-linecap:butt;stroke-linejoin:miter;stroke:rgb(100%,100%,100%);stroke-opacity:1;stroke-miterlimit:4;" d="M 37.430664 7.898438 L 37.430664 11.501953 L 35.405273 13.375977 " transform="matrix(4,0,0,4,0,0)"/>
<path style="fill-rule:nonzero;fill:rgb(0.784314%,43.921569%,62.352941%);fill-opacity:1;stroke-width:0.5;stroke-linecap:butt;stroke-linejoin:miter;stroke:rgb(100%,100%,100%);stroke-opacity:1;stroke-miterlimit:4;" d="M 37.430664 20.398438 L 37.430664 24.001953 L 35.405273 25.87207 " transform="matrix(4,0,0,4,0,0)"/>
<path style="fill-rule:nonzero;fill:rgb(0.784314%,43.921569%,62.352941%);fill-opacity:1;stroke-width:0.5;stroke-linecap:butt;stroke-linejoin:miter;stroke:rgb(100%,100%,100%);stroke-opacity:1;stroke-miterlimit:4;" d="M 34.038086 23.292969 L 34.038086 26.900391 L 32.015625 28.769531 " transform="matrix(4,0,0,4,0,0)"/>
<path style="fill-rule:nonzero;fill:rgb(0.784314%,43.921569%,62.352941%);fill-opacity:1;stroke-width:0.5;stroke-linecap:butt;stroke-linejoin:miter;stroke:rgb(100%,100%,100%);stroke-opacity:1;stroke-miterlimit:4;" d="M 34.038086 10.796875 L 34.038086 14.401367 L 32.015625 16.271484 " transform="matrix(4,0,0,4,0,0)"/>
<path style="fill-rule:nonzero;fill:rgb(0.784314%,43.921569%,62.352941%);fill-opacity:1;stroke-width:0.5;stroke-linecap:butt;stroke-linejoin:miter;stroke:rgb(100%,100%,100%);stroke-opacity:1;stroke-miterlimit:4;" d="M 35.410156 0.319336 L 30.711914 11.700195 " transform="matrix(4,0,0,4,0,0)"/>
</g>
</svg>

<svg xmlns="http://www.w3.org/2000/svg" viewBox="0 0 40 50" height="50" width="40"><path d="M39.116 38.195V3.288L30.723 11.7v36.366l8.393-9.872" fill="#02709f"/><path d="M39.116 38.195V3.288L30.723 11.7v36.366l8.393-9.872z" fill="none" stroke="#fff" stroke-width=".5"/><path d="M.4 48.069h30.323V11.7H.4V48.07z" fill="#02709f"/><path d="M.4 48.069h30.323V11.7H.4V48.07z" fill="none" stroke="#fff" stroke-width=".5"/><path d="M30.723 11.701l8.393-8.413-4.165-2.97H5.958L.4 11.702h30.323" fill="#02709f"/><path d="M30.723 11.701l8.393-8.413-4.165-2.97H5.958L.4 11.702h30.323z" fill="none" stroke="#fff" stroke-width=".5"/><path d="M6.792 25.3v3.174h3.18" fill="#02709f"/><path d="M6.792 25.3v3.174h3.18M6.46 28.474h3.511" fill="none" stroke="#fff" stroke-width=".5"/><path d="M2.364 25.3v3.174h3.174" fill="#02709f"/><path d="M2.364 25.3v3.174h3.174M2.031 28.474h3.507" fill="none" stroke="#fff" stroke-width=".5"/><path d="M2.364 19.211v3.174h3.174" fill="#02709f"/><path d="M2.364 19.21v3.175h3.174M2.031 22.385h3.507" fill="none" stroke="#fff" stroke-width=".5"/><path d="M6.792 13.118v3.173h3.18" fill="#02709f"/><path d="M6.792 13.118v3.173h3.18M6.46 16.291h3.511" fill="none" stroke="#fff" stroke-width=".5"/><path d="M2.364 13.118v3.173h3.174" fill="#02709f"/><path d="M2.364 13.118v3.173h3.174M2.031 16.291h3.507" fill="none" stroke="#fff" stroke-width=".5"/><path d="M11.949 25.3v3.174h3.178" fill="#02709f"/><path d="M11.949 25.3v3.174h3.178M11.616 28.474h3.511" fill="none" stroke="#fff" stroke-width=".5"/><path d="M11.949 19.211v3.174h3.178" fill="#02709f"/><path d="M11.949 19.21v3.175h3.178M11.616 22.385h3.511" fill="none" stroke="#fff" stroke-width=".5"/><path d="M11.949 13.118v3.173h3.178" fill="#02709f"/><path d="M11.949 13.118v3.173h3.178M11.616 16.291h3.511" fill="none" stroke="#fff" stroke-width=".5"/><path d="M21.168 25.3v3.174h3.178" fill="#02709f"/><path d="M21.168 25.3v3.174h3.178M20.835 28.474h3.511" fill="none" stroke="#fff" stroke-width=".5"/><path d="M16.739 25.3v3.174h3.174" fill="#02709f"/><path d="M16.739 25.3v3.174h3.174M16.406 28.474h3.507" fill="none" stroke="#fff" stroke-width=".5"/><path d="M16.739 19.211v3.174h3.174" fill="#02709f"/><path d="M16.739 19.21v3.175h3.174M16.406 22.385h3.507" fill="none" stroke="#fff" stroke-width=".5"/><path d="M21.168 13.118v3.173h3.178" fill="#02709f"/><path d="M21.168 13.118v3.173h3.178M20.835 16.291h3.511" fill="none" stroke="#fff" stroke-width=".5"/><path d="M16.739 13.118v3.173h3.174" fill="#02709f"/><path d="M16.739 13.118v3.173h3.174M16.406 16.291h3.507" fill="none" stroke="#fff" stroke-width=".5"/><path d="M26.324 25.3v3.174h3.178" fill="#02709f"/><path d="M26.324 25.3v3.174h3.178M25.991 28.474h3.512" fill="none" stroke="#fff" stroke-width=".5"/><path d="M26.324 19.211v3.174h3.178" fill="#02709f"/><path d="M26.324 19.21v3.175h3.178M25.991 22.385h3.512" fill="none" stroke="#fff" stroke-width=".5"/><path d="M26.324 13.118v3.173h3.178" fill="#02709f"/><path d="M26.324 13.118v3.173h3.178M25.991 16.291h3.512" fill="none" stroke="#fff" stroke-width=".5"/><path d="M37.431 7.898v3.604l-2.026 1.874" fill="#02709f"/><path d="M37.431 7.898v3.604l-2.026 1.874" fill="none" stroke="#fff" stroke-width=".5"/><path d="M37.431 20.398v3.604l-2.026 1.87" fill="#02709f"/><path d="M37.431 20.398v3.604l-2.026 1.87" fill="none" stroke="#fff" stroke-width=".5"/><path d="M34.038 23.293V26.9l-2.022 1.87" fill="#02709f"/><path d="M34.038 23.293V26.9l-2.022 1.87" fill="none" stroke="#fff" stroke-width=".5"/><path d="M34.038 10.797v3.604l-2.022 1.87" fill="#02709f"/><path d="M34.038 10.797v3.604l-2.022 1.87" fill="none" stroke="#fff" stroke-width=".5"/><path d="M35.41.319L30.712 11.7" fill="#02709f"/><path d="M35.41.319L30.712 11.7" fill="none" stroke="#fff" stroke-width=".5"/></svg>
